src/cmd/sc_tabledesign.svg

<svg viewBox="0 0 16 16" xmlns="http://www.w3.org/2000/svg">/&gt;<path d="m5 2v1 2 1h4v4h1 4v-1-6-1zm1 1h3v2h-3zm4 0h3v2h-3zm-8 3v.875 6.625.5h.46875 9.96875 1.5625l-1.34375-.875-9.96875-6.65625zm8 0h3v3h-3zm-7 2 7.84375 5.03125-7.84375-.03125z" fill="#232629"/></svg>

<?xml version="1.0" encoding="UTF-8" standalone="no"?>
<svg
   xmlns:dc="http://purl.org/dc/elements/1.1/"
   xmlns:cc="http://creativecommons.org/ns#"
   xmlns:rdf="http://www.w3.org/1999/02/22-rdf-syntax-ns#"
   xmlns:svg="http://www.w3.org/2000/svg"
   xmlns="http://www.w3.org/2000/svg"
   xmlns:sodipodi="http://sodipodi.sourceforge.net/DTD/sodipodi-0.dtd"
   xmlns:inkscape="http://www.inkscape.org/namespaces/inkscape"
   viewBox="0 0 16 16"
   version="1.1"
   id="svg4"
   sodipodi:docname="sc_tabledesign.svg"
   inkscape:version="0.92.4 (5da689c313, 2019-01-14)"><metadata
   id="metadata10">
  <rdf:RDF>
    <cc:Work
       rdf:about="">
      <dc:format>image/svg+xml</dc:format>
      <dc:type
         rdf:resource="http://purl.org/dc/dcmitype/StillImage" />
    </cc:Work>
  </rdf:RDF>
</metadata>
<defs
   id="defs8" />
<sodipodi:namedview
   pagecolor="#ffffff"
   bordercolor="#666666"
   borderopacity="1"
   objecttolerance="10"
   gridtolerance="10"
   guidetolerance="10"
   inkscape:pageopacity="0"
   inkscape:pageshadow="2"
   inkscape:window-width="1920"
   inkscape:window-height="1011"
   id="namedview6"
   showgrid="true"
   inkscape:zoom="41.7193"
   inkscape:cx="14.51923"
   inkscape:cy="13.709722"
   inkscape:window-x="1920"
   inkscape:window-y="32"
   inkscape:window-maximized="1"
   inkscape:current-layer="svg4">
  <inkscape:grid
     type="xygrid"
     id="grid817" />
</sodipodi:namedview>
/&gt;<path
   d="m 5,2 v 1 2 1 h 4 v 4 h 1 4 V 9 4 C 14,2 13,2 11,2 Z M 6,3 H 9 V 5 H 6 Z m 4,0 h 1 c 1,0 2,0 2,1 V 5 H 10 Z M 2,6 V 6.875 13.5 14 H 2.46875 12.4375 14 L 12.65625,13.125 2.6875,6.46875 Z m 8,0 h 3 V 9 H 10 Z M 3,8 10.84375,13.03125 3,13 Z"
   id="path2"
   inkscape:connector-curvature="0"
   style="fill:#232629"
   sodipodi:nodetypes="cccccccccccccccccccccccccccccccccccccccccc" />
</svg>
